!!!COM: Haydn, Franz Joseph
!!!OPR: Symphony in E-flat Major
!!!OTL: Affettuoso 
!!!OMV: 2
!!!SCT: H I:91
!!!SCA: Thematisch-bibliographisches Werkevererzeichnis (A. van Hoboken)
!!!YOR: Dover Edition
!!!EED: Frances Bennion
!!!ENC: Frances Bennion
!!!CDT: 1732/3/31/-1809/5/31/
!!!OCY: Österreich
!!!YEC: Copyright (c) 1994, 2000 Center for Computer Assisted Research in the Humanities
!!!YEM: Rights to all derivative editions reserved.
!!!YEM: Refer to licensing agreement for further details.
!!!YEN: United States of America
**kern	**kern	**kern	**kern	**kern	**kern	**kern	**kern	**kern	**kern	**kern
*k[b-e-]	*k[b-e-]	*k[b-e-]	*k[b-e-]	*k[b-e-]	*k[b-e-]	*k[]	*k[]	*k[b-e-]	*k[b-e-]	*k[b-e-]
*B-:	*B-:	*B-:	*B-:	*B-:	*B-:	*B-:	*B-:	*B-:	*B-:	*B-:
*clefF	*clefF4	*clefF4	*clefF	*clefF	*clefF4	*clefF	*clefF	*clefF	*clefF	*clefC3
*M2/4	*M2/4	*M2/4	*M2/4	*M2/4	*M2/4	*M2/4	*M2/4	*M2/4	*M2/4	*M2/4
*tb48	*tb48	*tb48	*tb48	*tb48	*tb48	*tb48	*tb48	*tb48	*tb48	*tb48
=0-	=0-	=0-	=0-	=0-	=0-	=0-	=0-	=0-	=0-	=0-
4r	4r	4r	4r	4r	4r	4r	4r	4r	4r	4r
4r	4r	4r	4r	4r	4r	4r	4r	8f	4r	4r
.	.	.	.	.	.	.	.	8f	.	.
=1	=1	=1	=1	=1	=1	=1	=1	=1	=1	=1
2r	8B-	2r	2r	2r	2r	2r	2r	4b-	8d	8B-
.	8B-	.	.	.	.	.	.	.	8d	8B-
.	4e-	.	.	.	.	.	.	8cc	4g	4e-
.	.	.	.	.	.	.	.	8cc	.	.
=2	=2	=2	=2	=2	=2	=2	=2	=2	=2	=2
2r	8c	4r	2r	2r	2r	2r	2r	8.f	8e-	8c
.	8c	.	.	.	.	.	.	.	8e-	8c
.	.	.	.	.	.	.	.	32g	.	.
.	.	.	.	.	.	.	.	32a	.	.
.	4d	8BB-	.	.	.	.	.	8.b-	8.d	4f
.	.	8BB-	.	.	.	.	.	.	.	.
.	.	.	.	.	.	.	.	32cc	32e-	.
.	.	.	.	.	.	.	.	32dd	32f	.
=3	=3	=3	=3	=3	=3	=3	=3	=3	=3	=3
2r	2r	8G	2r	2r	2r	2r	2r	8ee-	[6..B-	8e-
.	.	8F	.	.	.	.	.	8dd	.	8f
.	.	8E-	.	.	.	.	.	8cc	.	8g
.	.	.	.	.	.	.	.	.	48B-]	.
.	.	.	.	.	.	.	.	.	16c	.
.	.	8E	.	.	.	.	.	8b-	16d-	8g
.	.	.	.	.	.	.	.	.	16d-	.
=4	=4	=4	=4	=4	=4	=4	=4	=4	=4	=4
2r	2r	4F	2r	2r	2r	2r	2r	8a	8c	4f
.	.	.	.	.	.	.	.	8cc	8A	.
.	.	4r	.	.	.	.	.	8f	4r	4r
.	.	.	.	.	.	.	.	8f	.	.
=5	=5	=5	=5	=5	=5	=5	=5	=5	=5	=5
2r	8B-	2r	2r	2r	2r	2r	2r	4b-	8d	8B-
.	8B-	.	.	.	.	.	.	.	8d	8B-
.	4e-	.	.	.	.	.	.	8cc	4g	4e-
.	.	.	.	.	.	.	.	8cc	.	.
=6	=6	=6	=6	=6	=6	=6	=6	=6	=6	=6
2r	8c	4r	2r	2r	2r	2r	2r	8.f	8e-	8c
.	8c	.	.	.	.	.	.	.	8e-	8c
.	.	.	.	.	.	.	.	32g	.	.
.	.	.	.	.	.	.	.	32a	.	.
.	4d	8BB-	.	.	.	.	.	8.b-	8.d	4f
.	.	8BB-	.	.	.	.	.	.	.	.
.	.	.	.	.	.	.	.	32cc	32e-	.
.	.	.	.	.	.	.	.	32dd	32f	.
=7	=7	=7	=7	=7	=7	=7	=7	=7	=7	=7
2r	2r	8G	2r	2r	2r	2r	2r	8ee-	16B-	8g
.	.	.	.	.	.	.	.	.	16c	.
.	.	8G-	.	.	.	.	.	8ee	16d-	4B-
.	.	.	.	.	.	.	.	.	16d-	.
.	.	8F	.	.	.	.	.	8ff	8d	.
.	.	8F	.	.	.	.	.	8a	8e-	8c
=8	=8	=8	=8	=8	=8	=8	=8	=8	=8	=8
4r	4r	8BB-	4r	4r	4r	4r	4r	4b-	4d	4B-
.	.	8B-	.	.	.	.	.	.	.	.
4r	4r	4r	4r	4r	4r	4r	4r	8dd	4r	4r
.	.	.	.	.	.	.	.	8dd	.	.
=9	=9	=9	=9	=9	=9	=9	=9	=9	=9	=9
2r	8F	8F	2r	2r	2r	2r	2r	4cc	8A	8F
.	8F	8F	.	.	.	.	.	.	8A	8F
.	4G	4G	.	.	.	.	.	8e	4B-	4G
.	.	.	.	.	.	.	.	8e	.	.
=10	=10	=10	=10	=10	=10	=10	=10	=10	=10	=10
2r	8C	8C	2r	2r	2r	2r	2r	4b-	8e	8G
.	8C	8C	.	.	.	.	.	.	8e	8G
.	4D	4D	.	.	.	.	.	8a	4f	4F
.	.	.	.	.	.	.	.	8a	.	.
=11	=11	=11	=11	=11	=11	=11	=11	=11	=11	=11
2r	8BB-	8BB-	2r	2r	2r	2r	2r	8g	8d	8B-
.	8BB-	8BB-	.	.	.	.	.	16.g	8d	8B-
.	.	.	.	.	.	.	.	32a	.	.
.	8BB	8BB	.	.	.	.	.	8f	8A-	8d
.	8BB	8BB	.	.	.	.	.	16.f	8A-	8d
.	.	.	.	.	.	.	.	32g	.	.
=12	=12	=12	=12	=12	=12	=12	=12	=12	=12	=12
2r	4C	4C	2r	2r	2r	2r	2r	8e	4G	4c
.	.	.	.	.	.	.	.	8c	.	.
.	8A	4r	.	.	.	.	.	8f	8c	8A
.	8A	.	.	.	.	.	.	8f	8c	8A
=13	=13	=13	=13	=13	=13	=13	=13	=13	=13	=13
2r	8r	2r	2r	2r	2r	2r	2r	8a	8r	8r
.	8B-	.	.	.	.	.	.	8g	8d	8B-
.	8r	.	.	.	.	.	.	16.b-	8r	8r
.	.	.	.	.	.	.	.	32a	.	.
.	16.c	.	.	.	.	.	.	16.cc	16.e	16.c
.	32d	.	.	.	.	.	.	32b-	32f	32d
=14	=14	=14	=14	=14	=14	=14	=14	=14	=14	=14
2r	2e	2r	2r	2r	2r	2r	2r	4dd	2g	2e
.	.	.	.	.	.	.	.	8cc	.	.
.	.	.	.	.	.	.	.	8b-	.	.
=15	=15	=15	=15	=15	=15	=15	=15	=15	=15	=15
2r	8f	2r	2r	2r	2r	2r	2r	8a	8f	8f
.	8r	.	.	.	.	.	.	16.a	8r	8r
.	.	.	.	.	.	.	.	32cc	.	.
.	8c	.	.	.	.	.	.	8g	8e	8B-
.	8r	.	.	.	.	.	.	16.g	8r	8r
.	.	.	.	.	.	.	.	32cc	.	.
=16	=16	=16	=16	=16	=16	=16	=16	=16	=16	=16
2r	4F	4r	2r	2r	2r	2r	2r	4f	4f	4A
.	8FF	8FF	.	.	.	.	.	4r	4r	8F
.	8FF	8FF	.	.	.	.	.	.	.	8F
=17	=17	=17	=17	=17	=17	=17	=17	=17	=17	=17
2r	2GG-	2GG-	2r	2r	2r	2r	2r	4r	4r	2G-
.	.	.	.	.	.	.	.	8e-	8e-	.
.	.	.	.	.	.	.	.	8e-	8e-	.
=18	=18	=18	=18	=18	=18	=18	=18	=18	=18	=18
2r	8G-	8G-	2r	2r	2r	2r	2r	8.A-	8.A-	8C
.	8G-	8G-	.	.	.	.	.	.	.	8E-
.	.	.	.	.	.	.	.	32B-	32B-	.
.	.	.	.	.	.	.	.	32c	32c	.
.	8F	8F	.	.	.	.	.	8.d-	8.d-	8D-
.	8D-	8D-	.	.	.	.	.	.	.	8F
.	.	.	.	.	.	.	.	32e-	32e-	.
.	.	.	.	.	.	.	.	32f	32f	.
=19	=19	=19	=19	=19	=19	=19	=19	=19	=19	=19
2r	8C	8C	2r	2r	2r	2r	2r	8g-	8e-	8A-
.	8C	8C	.	.	.	.	.	8g-	8e-	8A-
.	8D-	8D-	.	.	.	.	.	8f	8d-	8A-
.	8D-	8D-	.	.	.	.	.	8f	8d-	8A-
=20	=20	=20	=20	=20	=20	=20	=20	=20	=20	=20
2r	4AA-	4AA-	2r	2r	2r	2r	2r	4e-	4c	4A-
.	8BB-	8BB-	.	.	.	.	.	8d	8A-	8F
.	8BB-	8BB-	.	.	.	.	.	8d	8A-	8F
=21	=21	=21	=21	=21	=21	=21	=21	=21	=21	=21
2r	4BB-	4BB-	2r	2r	2r	2r	2r	4d	4A-	4F
.	8EE-	8EE-	.	.	.	.	.	8e-	8G	8G
.	8EE-	8EE-	.	.	.	.	.	8e-	8G	8B-
=22	=22	=22	=22	=22	=22	=22	=22	=22	=22	=22
4r	4EE-	4EE-	4r	4r	4r	4r	4r	4e-	4G	4G
8gg	8E-	8E-	8gg	8b-	8e-	8cc	8cc	8gg 8b- 8e-	8gg 8e- 8b-	8e-
8gg	8E-	8E-	8gg	8b-	8e-	8cc	8cc	8gg 8b- 8e-	8gg 8b- 8e-	8e-
=23	=23	=23	=23	=23	=23	=23	=23	=23	=23	=23
8ff	8F	8F	8ff	8dd	8d	8ee	8cc	8ff 8d 8b-	8d 8ff 8b-	8f
8ff	8F	8F	8ff	8dd	8d	8ee	8cc	8ff 8b- 8d	8d 8ff 8b-	8f
8aa	8FF	8FF	8aa	8cc	8c	8dd	8g	8e- 8c 8a	8e- 8c 8a	8F
8aa	8FF	8FF	8aa	8cc	8c	8dd	8g	8e- 8c 8a	8a 8e- 8c	8F
=24	=24	=24	=24	=24	=24	=24	=24	=24	=24	=24
4bb-	4BB-	4BB-	4bb-	4dd	4B-	4cc	4e	4B- 4b- 4d	4B- 4d 4b-	4B-
4r	4r	4r	4r	4r	4r	4r	4r	4r	4r	4r
=25	=25	=25	=25	=25	=25	=25	=25	=25	=25	=25
2r	8BB-	8BB-	2r	2r	2r	2r	2r	24r	8d	2r
.	.	.	.	.	.	.	.	24ddd	.	.
.	.	.	.	.	.	.	.	24ccc	.	.
.	8BB-	8BB-	.	.	.	.	.	24bb-	8d	.
.	.	.	.	.	.	.	.	24aa	.	.
.	.	.	.	.	.	.	.	24gg	.	.
.	4E-	4E-	.	.	.	.	.	24ff	4G	.
.	.	.	.	.	.	.	.	24ee-	.	.
.	.	.	.	.	.	.	.	24dd	.	.
.	.	.	.	.	.	.	.	24cc	.	.
.	.	.	.	.	.	.	.	24b-	.	.
.	.	.	.	.	.	.	.	24a	.	.
=26	=26	=26	=26	=26	=26	=26	=26	=26	=26	=26
2r	8AA	8AA	2r	2r	2r	2r	2r	24g	8c	4r
.	.	.	.	.	.	.	.	24f	.	.
.	.	.	.	.	.	.	.	24e	.	.
.	8E-	8E-	.	.	.	.	.	24f	8c	.
.	.	.	.	.	.	.	.	24g	.	.
.	.	.	.	.	.	.	.	24a	.	.
.	4D	4D	.	.	.	.	.	24b-	8d	8B-
.	.	.	.	.	.	.	.	24dd	.	.
.	.	.	.	.	.	.	.	24cc	.	.
.	.	.	.	.	.	.	.	24b-	8f	8B-
.	.	.	.	.	.	.	.	24cc	.	.
.	.	.	.	.	.	.	.	24dd	.	.
=27	=27	=27	=27	=27	=27	=27	=27	=27	=27	=27
2r	8G	8G	2r	2r	2r	2r	2r	24ff	4.B-	8e-
.	.	.	.	.	.	.	.	24ee-	.	.
.	.	.	.	.	.	.	.	24ee-	.	.
.	8F	8F	.	.	.	.	.	24ee-	.	8f
.	.	.	.	.	.	.	.	24dd	.	.
.	.	.	.	.	.	.	.	24dd	.	.
.	8E-	8E-	.	.	.	.	.	24dd	.	8g
.	.	.	.	.	.	.	.	24cc	.	.
.	.	.	.	.	.	.	.	24cc	.	.
.	8E	8E	.	.	.	.	.	24cc	8d-	8g
.	.	.	.	.	.	.	.	24b-	.	.
.	.	.	.	.	.	.	.	24b-	.	.
=28	=28	=28	=28	=28	=28	=28	=28	=28	=28	=28
2r	4F	4F	2r	2r	2r	2r	2r	8a	8c	4f
.	.	.	.	.	.	.	.	8cc	8A	.
.	4r	4r	.	.	.	.	.	4r	4r	4r
=29	=29	=29	=29	=29	=29	=29	=29	=29	=29	=29
2r	8BB-	8BB-	2r	2r	2r	2r	2r	24r	8d	2r
.	.	.	.	.	.	.	.	24ddd	.	.
.	.	.	.	.	.	.	.	24ccc	.	.
.	8BB-	8BB-	.	.	.	.	.	24bb-	8d	.
.	.	.	.	.	.	.	.	24aa	.	.
.	.	.	.	.	.	.	.	24gg	.	.
.	4E-	4E-	.	.	.	.	.	24ff	4G	.
.	.	.	.	.	.	.	.	24ee-	.	.
.	.	.	.	.	.	.	.	24dd	.	.
.	.	.	.	.	.	.	.	24cc	.	.
.	.	.	.	.	.	.	.	24b-	.	.
.	.	.	.	.	.	.	.	24a	.	.
=30	=30	=30	=30	=30	=30	=30	=30	=30	=30	=30
2r	8AA	8AA	2r	2r	2r	2r	2r	24g	8c	4r
.	.	.	.	.	.	.	.	24f	.	.
.	.	.	.	.	.	.	.	24e	.	.
.	8E-	8E-	.	.	.	.	.	24f	8c	.
.	.	.	.	.	.	.	.	24g	.	.
.	.	.	.	.	.	.	.	24a	.	.
.	4D	4D	.	.	.	.	.	24b-	8d	8B-
.	.	.	.	.	.	.	.	24dd	.	.
.	.	.	.	.	.	.	.	24cc	.	.
.	.	.	.	.	.	.	.	24b-	8f	8B-
.	.	.	.	.	.	.	.	24cc	.	.
.	.	.	.	.	.	.	.	24dd	.	.
=31	=31	=31	=31	=31	=31	=31	=31	=31	=31	=31
2r	8G	8G	2r	2r	2r	2r	2r	24ee-	8B-	8g
.	.	.	.	.	.	.	.	24ee-	.	.
.	.	.	.	.	.	.	.	24ee-	.	.
.	8G-	8G-	.	.	.	.	.	24ee	8d-	4B-
.	.	.	.	.	.	.	.	24ee	.	.
.	.	.	.	.	.	.	.	24ee	.	.
.	8F	8F	.	.	.	.	.	24ff	8d	.
.	.	.	.	.	.	.	.	24gg	.	.
.	.	.	.	.	.	.	.	24ff	.	.
.	8F	8F	.	.	.	.	.	24ee-	8e-	8A
.	.	.	.	.	.	.	.	24dd	.	.
.	.	.	.	.	.	.	.	24cc	.	.
=32	=32	=32	=32	=32	=32	=32	=32	=32	=32	=32
4r	8BB-	8BB-	4r	4r	4r	4r	4r	4b-	4d	4B-
.	8B-	8B-	.	.	.	.	.	.	.	.
4r	4r	4r	4r	4r	4r	4r	4r	4r	4r	4r
=33	=33	=33	=33	=33	=33	=33	=33	=33	=33	=33
2r	8F	8F	2r	2r	2r	2r	2r	24r	8A	8F
.	.	.	.	.	.	.	.	24ccc	.	.
.	.	.	.	.	.	.	.	24bb-	.	.
.	8F	8F	.	.	.	.	.	24aa	8A	8F
.	.	.	.	.	.	.	.	24gg	.	.
.	.	.	.	.	.	.	.	24ff	.	.
.	4G	4G	.	.	.	.	.	8ee	4B-	4G
.	.	.	.	.	.	.	.	8ee	.	.
=34	=34	=34	=34	=34	=34	=34	=34	=34	=34	=34
2r	8C	8C	2r	2r	2r	2r	2r	24r	8e	8G
.	.	.	.	.	.	.	.	24ee	.	.
.	.	.	.	.	.	.	.	24ff	.	.
.	8C	8C	.	.	.	.	.	24gg	8e	8G
.	.	.	.	.	.	.	.	24aa	.	.
.	.	.	.	.	.	.	.	24bb-	.	.
.	4D	4D	.	.	.	.	.	8aa	4f	4F
.	.	.	.	.	.	.	.	8aa	.	.
=35	=35	=35	=35	=35	=35	=35	=35	=35	=35	=35
2r	8BB-	8BB-	2r	2r	2r	2r	2r	24r	8d	8B-
.	.	.	.	.	.	.	.	24ff#	.	.
.	.	.	.	.	.	.	.	24gg	.	.
.	8BB-	8BB-	.	.	.	.	.	24bb-	8d	8B-
.	.	.	.	.	.	.	.	24aa	.	.
.	.	.	.	.	.	.	.	24gg	.	.
.	8BB	8BB	.	.	.	.	.	24r	8d	8B
.	.	.	.	.	.	.	.	24ee	.	.
.	.	.	.	.	.	.	.	24ff	.	.
.	8BB	8BB	.	.	.	.	.	24aa	8d	8B
.	.	.	.	.	.	.	.	24gg	.	.
.	.	.	.	.	.	.	.	24ff	.	.
=36	=36	=36	=36	=36	=36	=36	=36	=36	=36	=36
2r	4C	4C	2r	2r	2r	2r	2r	8ee	4c	4c
.	.	.	.	.	.	.	.	8cc	.	.
.	8A	8A	.	.	.	.	.	24r	8c	8A
.	.	.	.	.	.	.	.	24ff	.	.
.	.	.	.	.	.	.	.	24ee	.	.
.	8A	8A	.	.	.	.	.	24ff	8c	8A
.	.	.	.	.	.	.	.	24cc	.	.
.	.	.	.	.	.	.	.	24a	.	.
=37	=37	=37	=37	=37	=37	=37	=37	=37	=37	=37
2r	4B-	4B-	2r	2r	2r	2r	2r	24a	4d	4B-
.	.	.	.	.	.	.	.	24g	.	.
.	.	.	.	.	.	.	.	24g	.	.
.	.	.	.	.	.	.	.	24g	.	.
.	.	.	.	.	.	.	.	24g	.	.
.	.	.	.	.	.	.	.	24g	.	.
.	8c	8c	.	.	.	.	.	24b-	8e	8c
.	.	.	.	.	.	.	.	24a	.	.
.	.	.	.	.	.	.	.	24a	.	.
.	8d	8d	.	.	.	.	.	24cc	8f	8d
.	.	.	.	.	.	.	.	24b-	.	.
.	.	.	.	.	.	.	.	24b-	.	.
=38	=38	=38	=38	=38	=38	=38	=38	=38	=38	=38
2r	2e	2e	2r	2r	2r	2r	2r	24dd	2g	2e
.	.	.	.	.	.	.	.	24dd-	.	.
.	.	.	.	.	.	.	.	24dd-	.	.
.	.	.	.	.	.	.	.	24dd-	.	.
.	.	.	.	.	.	.	.	24cc	.	.
.	.	.	.	.	.	.	.	24cc	.	.
.	.	.	.	.	.	.	.	24cc	.	.
.	.	.	.	.	.	.	.	24b	.	.
.	.	.	.	.	.	.	.	24b	.	.
.	.	.	.	.	.	.	.	24b	.	.
.	.	.	.	.	.	.	.	24b-	.	.
.	.	.	.	.	.	.	.	24b-	.	.
=39	=39	=39	=39	=39	=39	=39	=39	=39	=39	=39
2r	8f	8f	2r	2r	2r	2r	2r	24b-	8f	8f
.	.	.	.	.	.	.	.	24a	.	.
.	.	.	.	.	.	.	.	24a	.	.
.	8B-	8B-	.	.	.	.	.	24dd	4f	8G
.	.	.	.	.	.	.	.	24b-	.	.
.	.	.	.	.	.	.	.	24g	.	.
.	8c	8c	.	.	.	.	.	24cc	.	8A
.	.	.	.	.	.	.	.	24a	.	.
.	.	.	.	.	.	.	.	24f	.	.
.	8C	8C	.	.	.	.	.	24b-	8e	8B-
.	.	.	.	.	.	.	.	24g	.	.
.	.	.	.	.	.	.	.	24e	.	.
=40	=40	=40	=40	=40	=40	=40	=40	=40	=40	=40
2r	4F	4F	2r	2r	2r	2r	2r	4f	4f	4A
.	8FF	8FF	.	.	.	.	.	4r	4r	8F
.	8FF	8FF	.	.	.	.	.	.	.	8F
=41	=41	=41	=41	=41	=41	=41	=41	=41	=41	=41
2r	2GG-	2GG-	2r	2r	2r	2r	2r	24r	4r	2G-
.	.	.	.	.	.	.	.	24d	.	.
.	.	.	.	.	.	.	.	24e-	.	.
.	.	.	.	.	.	.	.	24g-	.	.
.	.	.	.	.	.	.	.	24f	.	.
.	.	.	.	.	.	.	.	24e-	.	.
.	.	.	.	.	.	.	.	24b-	8e-	.
.	.	.	.	.	.	.	.	24g-	.	.
.	.	.	.	.	.	.	.	24e-	.	.
.	.	.	.	.	.	.	.	24d-	8e-	.
.	.	.	.	.	.	.	.	24c	.	.
.	.	.	.	.	.	.	.	24B-	.	.
=42	=42	=42	=42	=42	=42	=42	=42	=42	=42	=42
2r	8G-	8G-	2r	2r	2r	2r	2r	24A-	2A-	8C
.	.	.	.	.	.	.	.	24c	.	.
.	.	.	.	.	.	.	.	24B-	.	.
.	8G-	8G-	.	.	.	.	.	24A-	.	8E-
.	.	.	.	.	.	.	.	24B-	.	.
.	.	.	.	.	.	.	.	24c	.	.
.	8F	8F	.	.	.	.	.	24d-	.	4D-
.	.	.	.	.	.	.	.	24f	.	.
.	.	.	.	.	.	.	.	24e-	.	.
.	8F	8F	.	.	.	.	.	24d-	.	.
.	.	.	.	.	.	.	.	24e-	.	.
.	.	.	.	.	.	.	.	24f	.	.
=43	=43	=43	=43	=43	=43	=43	=43	=43	=43	=43
2r	8C	8C	2r	2r	2r	2r	2r	24g-	8e-	8A-
.	.	.	.	.	.	.	.	24f	.	.
.	.	.	.	.	.	.	.	24g-	.	.
.	8C	8C	.	.	.	.	.	24ee-	8e-	8A-
.	.	.	.	.	.	.	.	24cc	.	.
.	.	.	.	.	.	.	.	24g-	.	.
.	8D-	8D-	.	.	.	.	.	24f	8d-	8A-
.	.	.	.	.	.	.	.	24e-	.	.
.	.	.	.	.	.	.	.	24f	.	.
.	8D-	8D-	.	.	.	.	.	24dd-	8d-	8A-
.	.	.	.	.	.	.	.	24a-	.	.
.	.	.	.	.	.	.	.	24f	.	.
=44	=44	=44	=44	=44	=44	=44	=44	=44	=44	=44
2r	4AA-	4AA-	2r	2r	2r	2r	2r	4e-	4c	4A-
.	8BB-	8BB-	.	.	.	.	.	4r	8d 8A-	8F
.	8BB-	8BB-	.	.	.	.	.	.	8d 8A-	8F
=45	=45	=45	=45	=45	=45	=45	=45	=45	=45	=45
2r	4BB-	4BB-	2r	2r	2r	2r	2r	24r	4A- 4d	4F
.	.	.	.	.	.	.	.	24ccc	.	.
.	.	.	.	.	.	.	.	24bb-	.	.
.	.	.	.	.	.	.	.	24aa-	.	.
.	.	.	.	.	.	.	.	24gg	.	.
.	.	.	.	.	.	.	.	24ff	.	.
.	8EE-	8EE-	.	.	.	.	.	8ee-	8G 8e-	8G
.	8EE-	8EE-	.	.	.	.	.	8ee-	8e- 8G	8B-
=46	=46	=46	=46	=46	=46	=46	=46	=46	=46	=46
4r	4EE-	4EE-	4r	4r	4r	4r	4r	24r	4G 4e-	4G
.	.	.	.	.	.	.	.	24d	.	.
.	.	.	.	.	.	.	.	24e-	.	.
.	.	.	.	.	.	.	.	24g	.	.
.	.	.	.	.	.	.	.	24b-	.	.
.	.	.	.	.	.	.	.	24ee-	.	.
8gg	8E-	8E-	8gg	8ee-	8e-	8cc	8cc	24gg	8gg 8b- 8e-	8e-
.	.	.	.	.	.	.	.	24ff#	.	.
.	.	.	.	.	.	.	.	24gg	.	.
8gg	8E-	8E-	8gg	8ee-	8e-	8cc	8cc	24bb-	8gg 8b- 8e-	8e-
.	.	.	.	.	.	.	.	24aa	.	.
.	.	.	.	.	.	.	.	24gg	.	.
=47	=47	=47	=47	=47	=47	=47	=47	=47	=47	=47
8ff	8F	8F	8ff	8dd	8d	8ee	8cc	24ff	8d 8ff 8b-	8f
.	.	.	.	.	.	.	.	24eee-	.	.
.	.	.	.	.	.	.	.	24ccc	.	.
8ff	8F	8F	8ff	8dd	8d	8ee	8cc	24bb-	8d 8ff 8b-	8f
.	.	.	.	.	.	.	.	24aa	.	.
.	.	.	.	.	.	.	.	24gg	.	.
8aa	8FF	8FF	8aa	8cc	8c	8dd	8g	24ff	8e- 8c 8a	8F
.	.	.	.	.	.	.	.	24ee-	.	.
.	.	.	.	.	.	.	.	24dd	.	.
8aa	8FF	8FF	8aa	8cc	8c	8dd	8g	24cc	8a 8e- 8c	8F
.	.	.	.	.	.	.	.	24b-	.	.
.	.	.	.	.	.	.	.	24a	.	.
=48	=48	=48	=48	=48	=48	=48	=48	=48	=48	=48
4bb-	4BB-	4BB-	4bb-	4dd	4B-	4cc	4e	4b-	4b- 4B- 4d	4F
4r	8d-	4r	4r	4r	4r	4r	4r	8f	8f	8d-
.	8B-	.	.	.	.	.	.	8dd-	8dd-	8B-
=49	=49	=49	=49	=49	=49	=49	=49	=49	=49	=49
2r	8e-	2r	2r	2r	2r	2r	2r	8.cc	8.cc	8e-
.	8c	.	.	.	.	.	.	.	.	8c
.	.	.	.	.	.	.	.	32dd-	32dd-	.
.	.	.	.	.	.	.	.	32ee-	32ee-	.
.	8f	.	.	.	.	.	.	8b-	8b-	8f
.	8e-	.	.	.	.	.	.	8a	8a	8e-
=50	=50	=50	=50	=50	=50	=50	=50	=50	=50	=50
2r	8d-	2r	2r	2r	2r	2r	2r	4b-	4b-	8d-
.	8B-	.	.	.	.	.	.	.	.	8B-
.	8A	.	.	.	.	.	.	8cc	8cc	8A
.	8F	.	.	.	.	.	.	8cc	8cc	8F
=51	=51	=51	=51	=51	=51	=51	=51	=51	=51	=51
2r	8B-	2r	2r	2r	2r	2r	2r	8.dd-	8.dd-	8B-
.	8F	.	.	.	.	.	.	.	.	8F
.	.	.	.	.	.	.	.	32cc	32cc	.
.	.	.	.	.	.	.	.	32dd-	32dd-	.
.	8c	.	.	.	.	.	.	8ee-	8ee-	8c
.	8B-	.	.	.	.	.	.	8dd-	8dd-	8B-
=52	=52	=52	=52	=52	=52	=52	=52	=52	=52	=52
2r	8F	2r	2r	2r	2r	2r	2r	8cc	8cc	8F
.	8f	.	.	.	.	.	.	8r	8r	8f
.	8d-	.	.	.	.	.	.	8f	8f	8d-
.	8B-	.	.	.	.	.	.	8dd-	8dd-	8B-
=53	=53	=53	=53	=53	=53	=53	=53	=53	=53	=53
2r	8e-	2r	2r	2r	2r	2r	2r	8.cc	8.cc	8e-
.	8c	.	.	.	.	.	.	.	.	8c
.	.	.	.	.	.	.	.	32dd-	32dd-	.
.	.	.	.	.	.	.	.	32ee-	32ee-	.
.	8f	.	.	.	.	.	.	8b-	8b-	8f
.	8e-	.	.	.	.	.	.	8a	8a	8e-
=54	=54	=54	=54	=54	=54	=54	=54	=54	=54	=54
2r	8d-	2r	2r	2r	2r	2r	2r	4b-	4b-	8d-
.	8B-	.	.	.	.	.	.	.	.	8B-
.	8e-	.	.	.	.	.	.	8g-	8g-	8e-
.	8d-	.	.	.	.	.	.	8g-	8g-	8d-
=55	=55	=55	=55	=55	=55	=55	=55	=55	=55	=55
2r	8c	2r	2r	2r	2r	2r	2r	8.g-	8.g-	8c
.	8A-	.	.	.	.	.	.	.	.	8A-
.	.	.	.	.	.	.	.	32f	32f	.
.	.	.	.	.	.	.	.	32g-	32g-	.
.	8d-	.	.	.	.	.	.	8f	8f	8d-
.	8F	.	.	.	.	.	.	8dd-	8dd-	8F
=56	=56	=56	=56	=56	=56	=56	=56	=56	=56	=56
2r	8G-	2r	2r	2r	2r	2r	2r	8.b-	8.b-	8G-
.	8E-	.	.	.	.	.	.	.	.	8E-
.	.	.	.	.	.	.	.	32a-	32a-	.
.	.	.	.	.	.	.	.	32b-	32b-	.
.	8A-	.	.	.	.	.	.	8a-	8a-	8A-
.	8A-	.	.	.	.	.	.	8c	8c	8A-
=57	=57	=57	=57	=57	=57	=57	=57	=57	=57	=57
4.r	4D-	4r	4.r	4.r	4.r	2r	2r	8d-	8d-	8D-
.	.	.	.	.	.	.	.	8r	8r	8d-
.	8D-	8D-	.	.	.	.	.	8f	8f	8d-
8ddd-	8BB-	8BB-	8ff	8dd-	8B-	.	.	8dd-	8dd-	8B-
=58	=58	=58	=58	=58	=58	=58	=58	=58	=58	=58
8r	8E-	8E-	8r	8r	8r	4.r	4.r	8.cc	8.cc	8e-
8ccc	8C	8C	8gg-	8ee-	8c	.	.	.	.	8c
.	.	.	.	.	.	.	.	32dd-	32dd-	.
.	.	.	.	.	.	.	.	32ee-	32ee-	.
8r	8F	8F	8r	8r	8r	.	.	8b-	8b-	8f
8aa	8E-	8E-	8cc	8a	8A	8g	8g	8a	8a	8e-
=59	=59	=59	=59	=59	=59	=59	=59	=59	=59	=59
8r	8D-	8D-	8r	8r	8r	8r	8r	4b-	4b-	8d-
8bb-	8BB-	8BB-	8dd-	8b-	8B-	8g	8g	.	.	8B-
8r	8AA	8AA	8r	8r	8r	8r	8r	8cc	8cc	8A
8ccc	8FF	8FF	8ee-	8a	8A	8g	8g	8cc	8cc	8F
=60	=60	=60	=60	=60	=60	=60	=60	=60	=60	=60
8r	8BB-	8BB-	8r	8r	8r	8r	8r	8.dd-	8.dd-	8B-
8ddd-	8FF	8FF	8dd-	8b-	8B-	8g	8g	.	.	8F
.	.	.	.	.	.	.	.	32cc	32cc	.
.	.	.	.	.	.	.	.	32dd-	32dd-	.
8r	8C	8C	8r	8r	8r	8r	8r	8ee-	8ee-	8c
8ddd-	8BB-	8BB-	8dd-	8f	8B-	8g	8g	8dd-	8dd-	8B-
=61	=61	=61	=61	=61	=61	=61	=61	=61	=61	=61
8r	8FF	8FF	8r	8r	8r	8r	8r	4cc	4cc	8F
8ccc	8F	8F	8cc	8a	8A	8g	8g	.	.	8f
8r	8D-	8D-	8r	8r	8r	4r	4r	8f	8f	8d-
8ddd-	8BB-	8BB-	8ff	8dd-	8B-	.	.	8dd-	8dd-	8B-
=62	=62	=62	=62	=62	=62	=62	=62	=62	=62	=62
8r	8E-	8E-	8r	8r	8r	4.r	4.r	8.cc	8.cc	8e-
8ccc	8C	8C	8gg-	8ee-	8c	.	.	.	.	8c
.	.	.	.	.	.	.	.	32dd-	32dd-	.
.	.	.	.	.	.	.	.	32ee-	32ee-	.
8r	8F	8F	8r	8r	8r	.	.	8b-	8b-	8f
8aa	8E-	8E-	8cc	8a	8A	8g	8g	8a	8a	8e-
=63	=63	=63	=63	=63	=63	=63	=63	=63	=63	=63
8r	8D-	8D-	8r	8r	8r	8r	8r	4b-	4b-	8d-
8bb-	8BB-	8BB-	8dd-	8b-	8B-	8g	8g	.	.	8B-
8r	8E-	8E-	8r	8r	8r	4r	4r	8g-	8g-	8e-
8eee-	8D-	8D-	8gg-	8b-	8G-	.	.	8g-	8g-	8d-
=64	=64	=64	=64	=64	=64	=64	=64	=64	=64	=64
8r	8C	8C	8r	8r	8r	2r	2r	8.g-	8.g-	8c
8eee-	8AA-	8AA-	8gg-	8a-	8G-	.	.	.	.	8A-
.	.	.	.	.	.	.	.	32f	32f	.
.	.	.	.	.	.	.	.	32g-	32g-	.
8r	8D-	8D-	8r	8r	8r	.	.	8f	8f	8d-
8ddd-	8F	8F	8ff	8a-	8F	.	.	8dd-	8dd-	8f
=65	=65	=65	=65	=65	=65	=65	=65	=65	=65	=65
8r	8G-	8G-	8r	8r	8r	2r	2r	8.b-	8.b-	8g-
8bb-	8E-	8E-	8gg-	8ee-	8G-	.	.	.	.	8e-
.	.	.	.	.	.	.	.	32a-	32a-	.
.	.	.	.	.	.	.	.	32b-	32b-	.
8r	8A-	8A-	8r	8r	8r	.	.	8a-	8a-	8a-
8ccc	8AA-	8AA-	8ee-	8cc	8A-	.	.	8c	8c	8A-
=66	=66	=66	=66	=66	=66	=66	=66	=66	=66	=66
8r	8D-	8D-	8r	8r	8r	2r	2r	8d-	8d-	8d-
8ddd-	8DD-	8DD-	8ff	8dd-	8F	.	.	8r	8r	8D-
4r	4r	4r	4r	4r	4r	.	.	8a-	8f	4r
.	.	.	.	.	.	.	.	8ff	8d-	.
=67	=67	=67	=67	=67	=67	=67	=67	=67	=67	=67
2r	2r	2r	2r	2r	2r	2r	2r	8.ee-	8g-	2r
.	.	.	.	.	.	.	.	.	8e-	.
.	.	.	.	.	.	.	.	32ff	.	.
.	.	.	.	.	.	.	.	32gg-	.	.
.	.	.	.	.	.	.	.	8dd-	8a-	.
.	.	.	.	.	.	.	.	8cc	8g-	.
=68	=68	=68	=68	=68	=68	=68	=68	=68	=68	=68
2r	2r	2r	2r	2r	2r	2r	2r	8.dd-	8f	2r
.	.	.	.	.	.	.	.	.	8d-	.
.	.	.	.	.	.	.	.	32ee-	.	.
.	.	.	.	.	.	.	.	32ff	.	.
.	.	.	.	.	.	.	.	8cc	8g-	.
.	.	.	.	.	.	.	.	8b-	8f	.
=69	=69	=69	=69	=69	=69	=69	=69	=69	=69	=69
2r	2r	2r	2r	2r	2r	2r	2r	16.cc	8e-	2r
.	.	.	.	.	.	.	.	32dd-	.	.
.	.	.	.	.	.	.	.	16.ee-	8c	.
.	.	.	.	.	.	.	.	32dd-	.	.
.	.	.	.	.	.	.	.	16.cc	8e-	.
.	.	.	.	.	.	.	.	32dd-	.	.
.	.	.	.	.	.	.	.	16.b-	8e	.
.	.	.	.	.	.	.	.	32cc	.	.
=70	=70	=70	=70	=70	=70	=70	=70	=70	=70	=70
4.r	4r	4r	4.r	4.r	4.r	2r	2r	8a	4f	4r
.	.	.	.	.	.	.	.	8f	.	.
.	8D-	8D-	.	.	.	.	.	8f	8f	8d-
8ddd-	8BB-	8BB-	8ff	8dd-	8B-	.	.	8dd-	8dd-	8B-
=71	=71	=71	=71	=71	=71	=71	=71	=71	=71	=71
8r	8E-	8E-	8r	8r	8r	4.r	4.r	8.cc	8.cc	8e-
8ccc	8C	8C	8gg-	8ee-	8c	.	.	.	.	8c
.	.	.	.	.	.	.	.	32dd-	32dd-	.
.	.	.	.	.	.	.	.	32ee-	32ee-	.
8r	8F	8F	8r	8r	8r	.	.	8b-	8b-	8f
8aa	8E-	8E-	8cc	8a	8A	8g	8g	8a	8a	8e-
=72	=72	=72	=72	=72	=72	=72	=72	=72	=72	=72
8r	8D-	8D-	8r	8r	8r	8r	8r	4b-	4b-	8d-
8bb-	8B-	8B-	8dd-	8b-	8B-	8g	8g	.	.	8b-
8r	8A	8A	8r	8r	8r	8r	8r	8cc	8cc	8a
8ff	8F	8F	8cc	8a	8A	8g	8g	8cc	8cc	8f
=73	=73	=73	=73	=73	=73	=73	=73	=73	=73	=73
8r	8B-	8B-	8r	8r	8r	8r	8r	8.dd-	8.dd-	8b-
8ff	8F	8F	8dd-	8b-	8B-	8g	8g	.	.	8f
.	.	.	.	.	.	.	.	32cc	32cc	.
.	.	.	.	.	.	.	.	32dd-	32dd-	.
8r	8c	8c	8r	8r	8r	8r	8r	8ee-	8ee-	8cc
8ff	8F	8F	8ee-	8cc	8c	8g	8g	8ee-	8ee-	8f
=74	=74	=74	=74	=74	=74	=74	=74	=74	=74	=74
8r	8d-	8d-	8r	8r	8r	8r	8r	8.ff	8.ff	8dd-
8ddd-	8F	8F	8ff	8dd-	8d-	8g	8g	.	.	8f
.	.	.	.	.	.	.	.	32ee-	32ee-	.
.	.	.	.	.	.	.	.	32ff	32ff	.
8r	8e-	8e-	8r	8r	8r	4r	4r	8gg-	8gg-	8ee-
8ccc	8E-	8E-	8gg-	8a	8c	.	.	8a	8a	8e-
=75	=75	=75	=75	=75	=75	=75	=75	=75	=75	=75
8r	8D-	8D-	8r	8r	8r	8r	8r	8.b-	8.b-	8d-
8bb-	8G-	8G-	8dd-	8b-	8B-	8cc	8c	.	.	8g-
.	.	.	.	.	.	.	.	32a	32a	.
.	.	.	.	.	.	.	.	32b-	32b-	.
8ccc	8E-	8E-	8ee-	8cc	8c	8r	8r	8cc	8cc	8e-
8aa	8F	8F	8cc	8a	8A	8dd	8g	8a	8a	8f
=76	=76	=76	=76	=76	=76	=76	=76	=76	=76	=76
8bb-	8BB-	8BB-	8b-	8b-	8B-	4cc	4c	8b-	8b-	8B-
4r	8B-	8B-	4.r	4.r	4.r	.	.	8r	8r	8b-
.	4r	4r	.	.	.	4r	4r	8a-	8f	4r
8aa-	.	.	.	.	.	.	.	8ff	8d-	.
=77	=77	=77	=77	=77	=77	=77	=77	=77	=77	=77
8bb-	2r	2r	2r	2r	2r	2r	2r	8.ee-	8g-	2r
8gg-	.	.	.	.	.	.	.	.	8e-	.
.	.	.	.	.	.	.	.	32ff	.	.
.	.	.	.	.	.	.	.	32gg-	.	.
8.ee-	.	.	.	.	.	.	.	8dd-	8a-	.
.	.	.	.	.	.	.	.	8cc	8g-	.
16bb-	.	.	.	.	.	.	.	.	.	.
=78	=78	=78	=78	=78	=78	=78	=78	=78	=78	=78
8aa-	2r	2r	2r	2r	2r	2r	2r	8.dd-	8f	2r
8ff	.	.	.	.	.	.	.	.	8d-	.
.	.	.	.	.	.	.	.	32ee-	.	.
.	.	.	.	.	.	.	.	32ff	.	.
8.dd-	.	.	.	.	.	.	.	8cc	8g-	.
.	.	.	.	.	.	.	.	8b-	8f	.
16aa-	.	.	.	.	.	.	.	.	.	.
=79	=79	=79	=79	=79	=79	=79	=79	=79	=79	=79
8..gg-	2r	2r	2r	2r	2r	2r	2r	16.cc	8e-	2r
.	.	.	.	.	.	.	.	32dd-	.	.
.	.	.	.	.	.	.	.	16.ee-	8c	.
32ff	.	.	.	.	.	.	.	32dd-	.	.
16.ee-	.	.	.	.	.	.	.	16.cc	8e-	.
32ff	.	.	.	.	.	.	.	32dd-	.	.
16.dd-	.	.	.	.	.	.	.	16.b-	8e	.
32ee-	.	.	.	.	.	.	.	32cc	.	.
=80	=80	=80	=80	=80	=80	=80	=80	=80	=80	=80
8cc	4r	4r	4.r	4.r	4.r	2r	2r	8a	4f	4r
8a	.	.	.	.	.	.	.	8f	.	.
8f	8D-	8D-	.	.	.	.	.	8f	8f	8d-
8ddd-	8BB-	8BB-	8ff	8dd-	8B-	.	.	8dd-	8dd-	8B-
=81	=81	=81	=81	=81	=81	=81	=81	=81	=81	=81
8r	8E-	8E-	8r	8r	8r	4.r	4.r	8.cc	8.cc	8e-
8ccc	8C	8C	8gg-	8ee-	8c	.	.	.	.	8c
.	.	.	.	.	.	.	.	32dd-	32dd-	.
.	.	.	.	.	.	.	.	32ee-	32ee-	.
8r	8F	8F	8r	8r	8r	.	.	8b-	8b-	8f
8aa	8E-	8E-	8cc	8a	8A	8g	8g	8a	8a	8e-
=82	=82	=82	=82	=82	=82	=82	=82	=82	=82	=82
8r	8D-	8D-	8r	8r	8r	8r	8r	4b-	4b-	8d-
8bb-	8B-	8B-	8dd-	8b-	8B-	8g	8g	.	.	8b-
8r	8A	8A	8r	8r	8r	8r	8r	8cc	8cc	8a
8ff	8F	8F	8cc	8a	8A	8g	8g	8cc	8cc	8f
=83	=83	=83	=83	=83	=83	=83	=83	=83	=83	=83
8r	8B-	8B-	8r	8r	8r	8r	8r	8.dd-	8.dd-	8b-
8ff	8F	8F	8dd-	8b-	8B-	8g	8g	.	.	8f
.	.	.	.	.	.	.	.	32cc	32cc	.
.	.	.	.	.	.	.	.	32dd-	32dd-	.
8r	8c	8c	8r	8r	8r	8r	8r	8ee-	8ee-	8cc
8ff	8F	8F	8ee-	8cc	8c	8g	8g	8ee-	8ee-	8f
=84	=84	=84	=84	=84	=84	=84	=84	=84	=84	=84
8r	8d-	8d-	8r	8r	8r	8r	8r	8.ff	8.ff	8dd-
8ddd-	8F	8F	8ff	8dd-	8d-	8g	8g	.	.	8f
.	.	.	.	.	.	.	.	32ee-	32ee-	.
.	.	.	.	.	.	.	.	32ff	32ff	.
8r	8e-	8e-	8r	8r	8r	4r	4r	8gg-	8gg-	8ee-
8ccc	8E-	8E-	8gg-	8a	8A	.	.	8a	8a	8e-
=85	=85	=85	=85	=85	=85	=85	=85	=85	=85	=85
8r	8D-	8D-	8r	8r	8r	8r	8r	8.b-	8.b-	8d-
8bb-	8G-	8G-	8dd-	8b-	8B-	8cc	8c	.	.	8g-
.	.	.	.	.	.	.	.	32a	32a	.
.	.	.	.	.	.	.	.	32b-	32b-	.
8ccc	8E-	8E-	8ee-	8cc	8c	8r	8r	8cc	8cc	8e-
8aa	8F	8F	8cc	8a	8A	8dd	8g	8a	8a	8f
=86	=86	=86	=86	=86	=86	=86	=86	=86	=86	=86
4bb-	8BB-	8BB-	4b-	4b-	4B-	4cc	4c	4b-	4b-	8B-
.	8B-	8B-	.	.	.	.	.	.	.	8b-
8ff	4r	4r	4r	4r	4r	4r	4r	8f	4r	4r
8ff	.	.	.	.	.	.	.	8f	.	.
=87	=87	=87	=87	=87	=87	=87	=87	=87	=87	=87
4bb-	16BB-	2r	2r	2r	8B-	2r	2r	4b-	8d	8B-
.	16D	.	.	.	.	.	.	.	.	.
.	16F	.	.	.	8B-	.	.	.	8d	8B-
.	16B-	.	.	.	.	.	.	.	.	.
8ccc	16E-	.	.	.	4e-	.	.	8cc	4g	4e-
.	16G	.	.	.	.	.	.	.	.	.
8ccc	16c	.	.	.	.	.	.	8cc	.	.
.	16e-	.	.	.	.	.	.	.	.	.
=88	=88	=88	=88	=88	=88	=88	=88	=88	=88	=88
8.ff	16A	4r	2r	2r	8A	8dd	8g	8.f	8e-	8c
.	16c	.	.	.	.	.	.	.	.	.
.	16e-	.	.	.	8f	8dd	8g	.	8e-	8c
32gg	16c	.	.	.	.	.	.	32g	.	.
32aa	.	.	.	.	.	.	.	32a	.	.
8.bb-	16d	8BB-	.	.	4B-	4ee	4cc	8.b-	16f	4d
.	16c	.	.	.	.	.	.	.	16e-	.
.	16B-	8BB-	.	.	.	.	.	.	16d	.
32ccc	16A	.	.	.	.	.	.	32cc	16c	.
32ddd	.	.	.	.	.	.	.	32dd	.	.
=89	=89	=89	=89	=89	=89	=89	=89	=89	=89	=89
8eee-	16G	8G	2r	2r	2r	2r	2r	8ee-	[6..B-	8e-
.	16B-	.	.	.	.	.	.	.	.	.
8ddd	16F	8F	.	.	.	.	.	8dd	.	8f
.	16B-	.	.	.	.	.	.	.	.	.
8ccc	16E-	8E-	.	.	.	.	.	8cc	.	8g
.	.	.	.	.	.	.	.	.	48B-]	.
.	16B-	.	.	.	.	.	.	.	16c	.
8bb-	16E	8E	.	.	.	.	.	8b-	16d-	8g
.	16c	.	.	.	.	.	.	.	16c	.
=90	=90	=90	=90	=90	=90	=90	=90	=90	=90	=90
8aa	16F	4F	2r	2r	2r	2r	2r	8a	4c	4f
.	16c	.	.	.	.	.	.	.	.	.
8ccc	16A	.	.	.	.	.	.	8cc	.	.
.	16f	.	.	.	.	.	.	.	.	.
8ff	16e-	4r	.	.	.	.	.	8f	4r	4r
.	16c	.	.	.	.	.	.	.	.	.
8ff	16A	.	.	.	.	.	.	8f	.	.
.	16F	.	.	.	.	.	.	.	.	.
=91	=91	=91	=91	=91	=91	=91	=91	=91	=91	=91
4bb-	16D	2r	2r	2r	8B-	2r	2r	4b-	8d	8B-
.	16F	.	.	.	.	.	.	.	.	.
.	16B-	.	.	.	8B-	.	.	.	8d	8B-
.	16d	.	.	.	.	.	.	.	.	.
8ccc	16E-	.	.	.	4e-	.	.	8cc	4g	4e-
.	16G	.	.	.	.	.	.	.	.	.
8ccc	16c	.	.	.	.	.	.	8cc	.	.
.	16e-	.	.	.	.	.	.	.	.	.
=92	=92	=92	=92	=92	=92	=92	=92	=92	=92	=92
8.ff	16A	4r	2r	2r	8A	8dd	8g	8.f	8e-	8c
.	16c	.	.	.	.	.	.	.	.	.
.	16e-	.	.	.	8f	8dd	8g	.	8e-	8c
32gg	16c	.	.	.	.	.	.	32g	.	.
32aa	.	.	.	.	.	.	.	32a	.	.
8.bb-	16d	8BB-	.	.	8B-	4ee	4cc	8.b-	16f	4f
.	16c	.	.	.	.	.	.	.	16e-	.
.	16B-	8BB-	.	.	8r	.	.	.	16d	.
32ccc	16A	.	.	.	.	.	.	32cc	16c	.
32ddd	.	.	.	.	.	.	.	32dd	.	.
=93	=93	=93	=93	=93	=93	=93	=93	=93	=93	=93
8eee-	16G	8G	2r	2r	2r	2r	2r	8ee-	16B-	8g
.	16B-	.	.	.	.	.	.	.	16c	.
8eee	16G-	8G-	.	.	.	.	.	8ee	16d-	4B-
.	16B-	.	.	.	.	.	.	.	16d-	.
8fff	16F	8F	.	.	.	.	.	8ff	8d	.
.	16d	.	.	.	.	.	.	.	.	.
8aa	16F	8F	.	.	.	.	.	8a	8e-	8c
.	16c	.	.	.	.	.	.	.	.	.
=94	=94	=94	=94	=94	=94	=94	=94	=94	=94	=94
8bb-	16B-	8BB-	4r	4r	2r	4r	4r	8b-	8d	4B-
.	16F	.	.	.	.	.	.	.	.	.
8r	16D	8B-	.	.	.	.	.	8r	8r	.
.	16BB-	.	.	.	.	.	.	.	.	.
8ff	4r	4r	8ff	8f	.	8g	8g	8ff	8f	4r
8ff	.	.	8ff	8f	.	8g	8g	8ff	8f	.
=95	=95	=95	=95	=95	=95	=95	=95	=95	=95	=95
8.bb-	16BB-	16BB-	8.bb-	8.b-	16BB-	4cc	4e	8.bb-	8.b-	8B-
.	16D	16D	.	.	16D	.	.	.	.	.
.	16F	16F	.	.	16F	.	.	.	.	8B-
32aa	16B-	16B-	32aa	32a	16B-	.	.	32aa	32a	.
32bb-	.	.	32bb-	32b-	.	.	.	32bb-	32b-	.
8ccc	16E-	16E-	8ccc	8cc	16E-	4r	4r	8ccc	8cc	4e-
.	16G	16G	.	.	16G	.	.	.	.	.
8ccc	16c	16c	8ccc	8cc	16c	.	.	8ccc	8cc	.
.	16e-	16e-	.	.	16e-	.	.	.	.	.
=96	=96	=96	=96	=96	=96	=96	=96	=96	=96	=96
8.ff	16A	16A	8.ff	8.f	16A	8dd	8g	8.ff	8.f	8f
.	16c	16c	.	.	16c	.	.	.	.	.
.	16e-	16e-	.	.	16e-	8dd	8g	.	.	8f
32gg	16c	16c	32gg	32g	16c	.	.	32gg	32g	.
32aa	.	.	32aa	32a	.	.	.	32aa	32a	.
8.bb-	16d	16d	8bb-	8.b-	16d	4ee	4cc	8.bb-	8.b-	4B-
.	16c	16c	.	.	16c	.	.	.	.	.
.	16B-	16B-	8bb-	.	16B-	.	.	.	.	.
32ccc	16A	16A	.	32cc	16A	.	.	32ccc	32cc	.
32ddd	.	.	.	32dd	.	.	.	32ddd	32dd	.
=97	=97	=97	=97	=97	=97	=97	=97	=97	=97	=97
8eee-	16G	16G	4bb-	8ee-	16G	8cc	8cc	8eee-	8ee-	8g
.	16B-	16B-	.	.	16B-	.	.	.	.	.
8ddd	16F	16F	.	8dd	16F	8cc	8cc	8ddd	8dd	8f
.	16B-	16B-	.	.	16B-	.	.	.	.	.
8ccc	16E-	16E-	4gg	8cc	16E-	8cc	8cc	8ccc	8cc	8e-
.	16c	16c	.	.	16c	.	.	.	.	.
8bb-	16E	16E	.	8b-	16E	8cc	8cc	8bb-	8b-	8e
.	16c	16c	.	.	16c	.	.	.	.	.
=98	=98	=98	=98	=98	=98	=98	=98	=98	=98	=98
8aa	16F	16F	4ff	8a	16F	4g	4g	8aa	8a	4f
.	16c	16c	.	.	16c	.	.	.	.	.
8ccc	16A	16A	.	8cc	16A	.	.	8ccc	8cc	.
.	16f	16f	.	.	16f	.	.	.	.	.
8ff	16e-	16e-	8ff	8f	16e-	8g	8g	8ff	8f	4r
.	16c	16c	.	.	16c	.	.	.	.	.
8ff	16A	16A	8ff	8f	16A	8g	8g	8ff	8f	.
.	16F	16F	.	.	16F	.	.	.	.	.
=99	=99	=99	=99	=99	=99	=99	=99	=99	=99	=99
8.bb-	16D	16D	8.bb-	8.b-	16D	4cc	4e	8.bb-	8.b-	8B-
.	16F	16F	.	.	16F	.	.	.	.	.
.	16B-	16B-	.	.	16B-	.	.	.	.	8B-
32aa	16d	16d	32aa	32a	16d	.	.	32aa	32a	.
32bb-	.	.	32bb-	32b-	.	.	.	32bb-	32b-	.
8ccc	16E-	16E-	8ccc	8cc	16E-	4r	4r	8ccc	8cc	4e-
.	16G	16G	.	.	16G	.	.	.	.	.
8ccc	16c	16c	8ccc	8cc	16c	.	.	8ccc	8cc	.
.	16e-	16e-	.	.	16e-	.	.	.	.	.
=100	=100	=100	=100	=100	=100	=100	=100	=100	=100	=100
8.ff	16A	16A	8.ff	8.f	16A	8dd	8g	8.ff	8.f	8f
.	16c	16c	.	.	16c	.	.	.	.	.
.	16e-	16e-	.	.	16e-	8dd	8g	.	.	8f
32gg	16c	16c	32gg	32g	16c	.	.	32gg	32g	.
32aa	.	.	32aa	32a	.	.	.	32aa	32a	.
8.bb-	16d	16d	8bb-	8.b-	16d	4ee	4cc	8.bb-	8.b-	4B-
.	16c	16c	.	.	16c	.	.	.	.	.
.	16B-	16B-	8bb-	.	16B-	.	.	.	.	.
32ccc	16A	16A	.	32cc	16A	.	.	32ccc	32cc	.
32ddd	.	.	.	32dd	.	.	.	32ddd	32dd	.
=101	=101	=101	=101	=101	=101	=101	=101	=101	=101	=101
8eee-	16G	16G	4.bb-	8ee-	16G	8cc	8cc	8eee-	8ee-	8g
.	16B-	16B-	.	.	16B-	.	.	.	.	.
8eee	16G-	16G-	.	8ee	16G-	8cc	8cc	8eee	8ee	8g-
.	16B-	16B-	.	.	16B-	.	.	.	.	.
8fff	16F	16F	.	8ff	16F	8ee	8cc	8fff	8ff	8f
.	16d	16d	.	.	16d	.	.	.	.	.
8aa	16F	16F	8aa	8cc	16F	8dd	8g	8a 8e- 8c	8a 8e- 8c	8F
.	16c	16c	.	.	16c	.	.	.	.	.
=102	=102	=102	=102	=102	=102	=102	=102	=102	=102	=102
4bb-	16B-	16B-	4bb-	4dd	16B-	4cc	4e	4b- 4B- 4d	4b- 4d 4B-	4B-
.	16F	16F	.	.	16F	.	.	.	.	.
.	16D	16D	.	.	16D	.	.	.	.	.
.	16BB-	16BB-	.	.	16BB-	.	.	.	.	.
8ddd	16BB-	16BB-	8ddd	8dd	16BB-	8ee	8cc	8ddd	8dd	16B-
.	16D	16D	.	.	16D	.	.	.	.	16d
8ddd	16F	16F	8ddd	8dd	16F	8ee	8cc	8ddd	8dd	16f
.	16B-	16B-	.	.	16B-	.	.	.	.	16b-
=103	=103	=103	=103	=103	=103	=103	=103	=103	=103	=103
4ccc	16A	16A	4ccc	4a	16A	4dd	4g	4ccc	4a	16a
.	16G	16G	.	.	16G	.	.	.	.	16g
.	16A	16A	.	.	16A	.	.	.	.	16a
.	16F	16F	.	.	16F	.	.	.	.	16f
8ee	16B-	16B-	8ee	8e	16B-	8g	8g	8ee	8e	16b-
.	16c	16c	.	.	16c	.	.	.	.	16cc
8ee	16G	16G	8ee	8e	16G	8g	8g	8ee	8e	16g
.	16B-	16B-	.	.	16B-	.	.	.	.	16b-
=104	=104	=104	=104	=104	=104	=104	=104	=104	=104	=104
4bb-	16E	16E	4bb-	4b-	16E	4cc	4cc	4bb-	4b-	16e
.	16G	16G	.	.	16G	.	.	.	.	16g
.	16C	16C	.	.	16C	.	.	.	.	16c
.	16E	16E	.	.	16E	.	.	.	.	16e
8aa	16F	16F	8aa	8a	16F	8g	8g	8aa	8a	16f
.	16A	16A	.	.	16A	.	.	.	.	16a
8aa	16D	16D	8aa	8a	16D	8g	8g	8aa	8a	16d
.	16F	16F	.	.	16F	.	.	.	.	16f
=105	=105	=105	=105	=105	=105	=105	=105	=105	=105	=105
8gg	16BB-	16BB-	8gg	8g	16BB-	4cc	4cc	8gg	8g	16B-
.	16D	16D	.	.	16D	.	.	.	.	16d
16.gg	16G	16G	16.gg	16.g	16G	.	.	16.gg	16.g	16g
.	16D	16D	.	.	16D	.	.	.	.	16d
32aa	.	.	32aa	32a	.	.	.	32aa	32a	.
8ff	16BB	16BB	8ff	8f	16BB	4ee	4ee	8ff	8f	16B
.	16D	16D	.	.	16D	.	.	.	.	16d
16.ff	16G	16G	16.ff	16.f	16G	.	.	16.ff	16.f	16g
.	16BB	16BB	.	.	16BB	.	.	.	.	16B
32gg	.	.	32gg	32g	.	.	.	32gg	32g	.
=106	=106	=106	=106	=106	=106	=106	=106	=106	=106	=106
8ee	16C	16C	8ee	8e	16E-	4dd	4dd	8ee	8e	4c
.	16G	16G	.	.	16G	.	.	.	.	.
8cc	16B	16B	8cc	8c	16B	.	.	8cc	8c	.
.	16c	16c	.	.	16c	.	.	.	.	.
8ff	16A	16A	8ff	8f	16A	4r	4r	8ff	8f	16A
.	16c	16c	.	.	16c	.	.	.	.	16c
8ff	16A	16A	8ff	8f	16A	.	.	8ff	8f	16A
.	16c	16c	.	.	16c	.	.	.	.	16c
=107	=107	=107	=107	=107	=107	=107	=107	=107	=107	=107
8aa	16B-	16B-	8aa	8a	16B-	2r	2r	8aa	8a	16B-
.	16d	16d	.	.	16d	.	.	.	.	16d
8gg	16B-	16B-	8gg	8g	16B-	.	.	8gg	8g	16B-
.	16d	16d	.	.	16d	.	.	.	.	16d
16.bb-	16c	16c	16.bb-	16.b-	16c	.	.	16.bb-	16.b-	16c
.	16e	16e	.	.	16e	.	.	.	.	16e
32aa	.	.	32aa	32a	.	.	.	32aa	32a	.
16.ccc	16d	16d	16.ccc	16.cc	16d	.	.	16.ccc	16.cc	16d
.	16f	16f	.	.	16f	.	.	.	.	16f
32bb-	.	.	32bb-	32b-	.	.	.	32bb-	32b-	.
=108	=108	=108	=108	=108	=108	=108	=108	=108	=108	=108
4ddd	16e	16e	4ddd	4dd	16e	2r	2r	4ddd	4dd	16e
.	16g	16g	.	.	16g	.	.	.	.	16g
.	16e	16e	.	.	16e	.	.	.	.	16e
.	16g	16g	.	.	16g	.	.	.	.	16g
8ccc	16e	16e	8ccc	8cc	16e	.	.	8ccc	8cc	16e
.	16g	16g	.	.	16g	.	.	.	.	16g
8bb-	16e	16e	8bb-	8b-	16e	.	.	8bb-	8b-	16e
.	16g	16g	.	.	16g	.	.	.	.	16g
=109	=109	=109	=109	=109	=109	=109	=109	=109	=109	=109
8aa	16f	16f	8aa	8a	16f	2r	2r	8aa	8a	16f
.	16e	16e	.	.	16e	.	.	.	.	16e
16.aa	16d	16d	16.aa	16.a	16d	.	.	16.aa	16.a	16d
.	16c	16c	.	.	16c	.	.	.	.	16c
32ccc	.	.	32ccc	32cc	.	.	.	32ccc	32cc	.
8gg	16B-	16B-	8gg	8g	16B-	.	.	8gg	8g	16B-
.	16B	16B	.	.	16B	.	.	.	.	16B
16.gg	16c	16c	16.gg	16.g	16c	.	.	16.gg	16.g	16c
.	16C	16C	.	.	16C	.	.	.	.	16C
32ccc	.	.	32ccc	32cc	.	.	.	32ccc	32cc	.
=110	=110	=110	=110	=110	=110	=110	=110	=110	=110	=110
4ff	16F	16F	4ff	4f	16F	2r	2r	4ff	4f	16F
.	16A	16A	.	.	16A	.	.	.	.	16A
.	16c	16c	.	.	16c	.	.	.	.	16c
.	16A	16A	.	.	16A	.	.	.	.	16A
4r	8F	8F	4r	4r	8F	.	.	4r	4r	8F
.	8F	8F	.	.	8FF	.	.	.	.	8F
=111	=111	=111	=111	=111	=111	=111	=111	=111	=111	=111
4r	2G-	2G-	4r	4r	2GG-	2r	2r	4r	4r	2G-
8ee-	.	.	8ee-	8ee-	.	.	.	8ee-	8e-	.
8ee-	.	.	8ee-	8ee-	.	.	.	8ee-	8e-	.
=112	=112	=112	=112	=112	=112	=112	=112	=112	=112	=112
8.a-	16G-	16G-	8.a-	8.a-	16G-	2r	2r	8.a-	8.A-	8C
.	16F	16F	.	.	16F	.	.	.	.	.
.	16G-	16G-	.	.	16G-	.	.	.	.	8E-
32b-	16E-	16E-	32b-	32b-	16E-	.	.	32b-	32B-	.
32cc	.	.	32cc	32cc	.	.	.	32cc	32c	.
8.dd-	16F	16F	8.dd-	8.dd-	16F	.	.	8.dd-	8.d-	16F
.	16E-	16E-	.	.	16E-	.	.	.	.	16E-
.	16F	16F	.	.	16F	.	.	.	.	16F
32ee-	16D-	16D-	32ee-	32ee-	16D-	.	.	32ee-	32e-	16d-
32ff	.	.	32ff	32ff	.	.	.	32ff	32f	.
=113	=113	=113	=113	=113	=113	=113	=113	=113	=113	=113
8gg-	16C	16C	8gg-	8gg-	16C	2r	2r	8gg-	8g-	16c
.	16E-	16E-	.	.	16E-	.	.	.	.	16e-
8gg-	16A-	16A-	8gg-	8ee-	16A-	.	.	8gg-	8g-	16a-
.	16C	16C	.	.	16C	.	.	.	.	16c
8ff	16D-	16D-	8ff	8ff	16D-	.	.	8ff	8f	16d-
.	16F	16F	.	.	16F	.	.	.	.	16f
8ff	16A-	16A-	8ff	8dd-	16A-	.	.	8ff	8f	16a-
.	16D-	16D-	.	.	16D-	.	.	.	.	16d-
=114	=114	=114	=114	=114	=114	=114	=114	=114	=114	=114
8ee-	16AA-	16AA-	8ee-	8cc	16AA-	2r	2r	8ee-	8e-	16A-
.	16C	16C	.	.	16C	.	.	.	.	16c
4.r	16E-	16E-	4.r	4.r	16E-	.	.	8r	8r	16e-
.	16A-	16A-	.	.	16A-	.	.	.	.	16a-
.	16BB-	16BB-	.	.	16BB-	.	.	8dd	8f 8A-	16B-
.	16F	16F	.	.	16F	.	.	.	.	16f
.	16BB-	16BB-	.	.	16BB-	.	.	8dd	8A- 8f	16B-
.	16F	16F	.	.	16F	.	.	.	.	16f
=115	=115	=115	=115	=115	=115	=115	=115	=115	=115	=115
2r	16BB-	16BB-	2r	2r	16BB-	2r	2r	4dd	4A- 4f	16B-
.	16D	16D	.	.	16D	.	.	.	.	16d
.	16F	16F	.	.	16F	.	.	.	.	16f
.	16B-	16B-	.	.	16B-	.	.	.	.	16b-
.	16E-	16E-	.	.	16E-	.	.	8ee-	8G 8e-	16e-
.	16G	16G	.	.	16G	.	.	.	.	16g
.	16E-	16E-	.	.	16E-	.	.	8ee-	8G 8e-	16e-
.	16G	16G	.	.	16G	.	.	.	.	16g
=116	=116	=116	=116	=116	=116	=116	=116	=116	=116	=116
4r	16E-	16E-	4r	4r	16E-	4r	4r	4ee-	4G 4e-	16e-
.	16G	16G	.	.	16G	.	.	.	.	16g
.	16B-	16B-	.	.	16B-	.	.	.	.	16b-
.	16e-	16e-	.	.	16e-	.	.	.	.	16ee-
8gg	16EE-	16EE-	8gg	8ee-	16EE-	8cc	8cc	8b- 8gg 8e-	8gg 8b- 8e-	16E-
.	16GG	16GG	.	.	16GG	.	.	.	.	16G
8gg	16BB-	16BB-	8gg	8ee-	16BB-	8cc	8cc	8b- 8gg 8e-	8gg 8e- 8b-	16B-
.	16E-	16E-	.	.	16E-	.	.	.	.	16e-
=117	=117	=117	=117	=117	=117	=117	=117	=117	=117	=117
8ff	16FF	16FF	8ff	8dd	16FF	8ee	8cc	8d 8ff 8b-	8ff 8d 8b-	16F
.	16BB-	16BB-	.	.	16BB-	.	.	.	.	16B-
8ff	16D	16D	8ff	8dd	16D	8ee	8cc	8ff 8d 8b-	8ff 8d 8b-	16d
.	16F	16F	.	.	16F	.	.	.	.	16f
8aa	16FF	16FF	8aa	8cc	16FF	8dd	8g	8e- 8a 8c	8a 8e- 8c	16F
.	16AA	16AA	.	.	16AA	.	.	.	.	16A
8aa	16C	16C	8aa	8cc	16C	8dd	8g	8a 8e- 8c	8a 8e- 8c	16c
.	16F	16F	.	.	16F	.	.	.	.	16f
=118	=118	=118	=118	=118	=118	=118	=118	=118	=118	=118
4bb-	8BB-	8BB-	4bb-	4dd	4BB-	4cc	4e	4B- 4b- 4d	4B- 4b- 4d	8B-
.	8r	8r	.	.	.	.	.	.	.	8r
4r	8F	8F	4r	4r	4r	4r	4r	4r	4r	8F
.	8F	8F	.	.	.	.	.	.	.	8F
=119	=119	=119	=119	=119	=119	=119	=119	=119	=119	=119
2r	4B-	4B-	2r	2r	2r	2r	2r	16.r	16.r	4B-
.	.	.	.	.	.	.	.	32ddd	32dd	.
.	.	.	.	.	.	.	.	16ccc	16cc	.
.	.	.	.	.	.	.	.	32r	32r	.
.	.	.	.	.	.	.	.	32bb-	32b-	.
.	8c	8c	.	.	.	.	.	16aa	16a	8c
.	.	.	.	.	.	.	.	32r	32r	.
.	.	.	.	.	.	.	.	32gg	32g	.
.	8c	8c	.	.	.	.	.	16ff	16f	8c
.	.	.	.	.	.	.	.	32r	32r	.
.	.	.	.	.	.	.	.	32ee	32e	.
=120	=120	=120	=120	=120	=120	=120	=120	=120	=120	=120
2r	8.F	8.F	2r	2r	2r	2r	2r	16ff	16f	8.F
.	.	.	.	.	.	.	.	32r	32r	.
.	.	.	.	.	.	.	.	32gg	32g	.
.	.	.	.	.	.	.	.	16ff	16f	.
.	32G	32G	.	.	.	.	.	32r	32r	32G
.	32A	32A	.	.	.	.	.	32ee-	32e-	32A
.	8.B-	8.B-	.	.	.	.	.	16dd	16d	8.B-
.	.	.	.	.	.	.	.	32r	32r	.
.	.	.	.	.	.	.	.	32cc	32c	.
.	.	.	.	.	.	.	.	16b-	16B-	.
.	32c	32c	.	.	.	.	.	32r	32r	32c
.	32d	32d	.	.	.	.	.	32a	32A	32d
=121	=121	=121	=121	=121	=121	=121	=121	=121	=121	=121
2r	8e-	8e-	2r	2r	2r	2r	2r	16g	16G	8e-
.	.	.	.	.	.	.	.	32r	32r	.
.	.	.	.	.	.	.	.	32b	32B	.
.	8d	8d	.	.	.	.	.	16cc	16c	8d
.	.	.	.	.	.	.	.	32r	32r	.
.	.	.	.	.	.	.	.	32dd	32d	.
.	8c	8c	.	.	.	.	.	16ee-	16e-	8c
.	.	.	.	.	.	.	.	32r	32r	.
.	.	.	.	.	.	.	.	32ff	32f	.
.	8B-	8B-	.	.	.	.	.	16gg	16g	8B-
.	.	.	.	.	.	.	.	32r	32r	.
.	.	.	.	.	.	.	.	32gg	32ee-	.
=122	=122	=122	=122	=122	=122	=122	=122	=122	=122	=122
2r	8A	8A	2r	2r	2r	2r	2r	4gg	4ee-	8A
.	8c	8c	.	.	.	.	.	.	.	8c
.	8F	8F	.	.	.	.	.	8ff	8dd	8F
.	8F	8F	.	.	.	.	.	8ee-	8cc	8F
=123	=123	=123	=123	=123	=123	=123	=123	=123	=123	=123
2r	4B-	4B-	2r	2r	2r	2r	2r	16dd	16b-	4B-
.	.	.	.	.	.	.	.	32r	32r	.
.	.	.	.	.	.	.	.	32ddd	32dd	.
.	.	.	.	.	.	.	.	16ccc	16cc	.
.	.	.	.	.	.	.	.	32r	32r	.
.	.	.	.	.	.	.	.	32bb-	32b-	.
.	8c	8c	.	.	.	.	.	16aa	16a	8c
.	.	.	.	.	.	.	.	32r	32r	.
.	.	.	.	.	.	.	.	32gg	32g	.
.	8c	8c	.	.	.	.	.	16ff	16f	8c
.	.	.	.	.	.	.	.	32r	32r	.
.	.	.	.	.	.	.	.	32ee	32e	.
=124	=124	=124	=124	=124	=124	=124	=124	=124	=124	=124
2r	8.F	8.F	2r	2r	2r	2r	2r	16ff	16f	8.F
.	.	.	.	.	.	.	.	32r	32r	.
.	.	.	.	.	.	.	.	32gg	32g	.
.	.	.	.	.	.	.	.	16ff	16f	.
.	32G	32G	.	.	.	.	.	32r	32r	32G
.	32A	32A	.	.	.	.	.	32ee-	32e-	32A
.	8.B-	8.B-	.	.	.	.	.	16dd	16d	8.B-
.	.	.	.	.	.	.	.	32r	32r	.
.	.	.	.	.	.	.	.	32cc	32c	.
.	.	.	.	.	.	.	.	16b-	16B-	.
.	32c	32c	.	.	.	.	.	32r	32r	32c
.	32d	32d	.	.	.	.	.	32a	32A	32d
=125	=125	=125	=125	=125	=125	=125	=125	=125	=125	=125
2r	8e-	8e-	2r	2r	2r	2r	2r	16.g	16.G	8e-
.	.	.	.	.	.	.	.	32a	32A	.
.	8e	8e	.	.	.	.	.	16.b-	16.B-	8e
.	.	.	.	.	.	.	.	32cc	32c	.
.	8f	8f	.	.	.	.	.	8b-	8B-	8f
.	8F	8F	.	.	.	.	.	8a	8A	8F
=126	=126	=126	=126	=126	=126	=126	=126	=126	=126	=126
2r	8B-	8B-	2r	2r	4r	2r	2r	4b-	4B-	4B-
.	8BB-	8BB-	.	.	.	.	.	.	.	.
.	8F	8F	.	.	8F	.	.	4r	4r	8F
.	8F	8F	.	.	8F	.	.	.	.	8F
=127	=127	=127	=127	=127	=127	=127	=127	=127	=127	=127
2r	8.B-	8.B-	2r	2r	8.B-	2r	2r	16.r	16.r	8.B-
.	.	.	.	.	.	.	.	32ddd	32dd	.
.	.	.	.	.	.	.	.	16ccc	16cc	.
.	32A	32A	.	.	32A	.	.	32r	32r	32A
.	32B-	32B-	.	.	32B-	.	.	32bb-	32b-	32B-
.	8c	8c	.	.	8c	.	.	16aa	16a	8c
.	.	.	.	.	.	.	.	32r	32r	.
.	.	.	.	.	.	.	.	32gg	32g	.
.	8c	8c	.	.	8c	.	.	16ff	16f	8c
.	.	.	.	.	.	.	.	32r	32r	.
.	.	.	.	.	.	.	.	32ee	32e	.
=128	=128	=128	=128	=128	=128	=128	=128	=128	=128	=128
2r	8.F	8.F	2r	2r	8.F	2r	2r	16ff	16f	8.F
.	.	.	.	.	.	.	.	32r	32r	.
.	.	.	.	.	.	.	.	32gg	32g	.
.	.	.	.	.	.	.	.	16ff	16f	.
.	32G	32G	.	.	32G	.	.	32r	32r	32G
.	32A	32A	.	.	32A	.	.	32ee-	32e-	32A
.	8.B-	8.B-	.	.	8.B-	.	.	16dd	16d	8.B-
.	.	.	.	.	.	.	.	32r	32r	.
.	.	.	.	.	.	.	.	32cc	32c	.
.	.	.	.	.	.	.	.	16b-	16B-	.
.	32c	32c	.	.	32c	.	.	32r	32r	32c
.	32d	32d	.	.	32d	.	.	32a	32A	32d
=129	=129	=129	=129	=129	=129	=129	=129	=129	=129	=129
2r	8e-	8e-	2r	2r	8e-	2r	2r	16g	16G	8e-
.	.	.	.	.	.	.	.	32r	32r	.
.	.	.	.	.	.	.	.	32b	32B	.
.	8d	8d	.	.	8d	.	.	16cc	16c	8d
.	.	.	.	.	.	.	.	32r	32r	.
.	.	.	.	.	.	.	.	32dd	32d	.
.	8c	8c	.	.	8c	.	.	16ee-	16e-	8c
.	.	.	.	.	.	.	.	32r	32r	.
.	.	.	.	.	.	.	.	32ff	32f	.
.	8B-	8B-	.	.	8B-	.	.	16gg	16g	8B-
.	.	.	.	.	.	.	.	32r	32r	.
.	.	.	.	.	.	.	.	32gg	32ee-	.
=130	=130	=130	=130	=130	=130	=130	=130	=130	=130	=130
2r	8A	8A	2r	2r	8A	2r	2r	4gg	4ee-	8A
.	8c	8c	.	.	8c	.	.	.	.	8c
.	8F	8F	.	.	8F	.	.	8ff	8dd	8F
.	8F	8F	.	.	8F	.	.	8ee-	8cc	8F
=131	=131	=131	=131	=131	=131	=131	=131	=131	=131	=131
2r	8.B-	8.B-	2r	2r	8.B-	2r	2r	16dd	16b-	8.B-
.	.	.	.	.	.	.	.	32r	32r	.
.	.	.	.	.	.	.	.	32ddd	32dd	.
.	.	.	.	.	.	.	.	16ccc	16cc	.
.	32A	32A	.	.	32A	.	.	32r	32r	32A
.	32B-	32B-	.	.	32B-	.	.	32bb-	32b-	32B-
.	8c	8c	.	.	8c	.	.	16aa	16a	8c
.	.	.	.	.	.	.	.	32r	32r	.
.	.	.	.	.	.	.	.	32gg	32g	.
.	8c	8c	.	.	8c	.	.	16ff	16f	8c
.	.	.	.	.	.	.	.	32r	32r	.
.	.	.	.	.	.	.	.	32ee	32e	.
=132	=132	=132	=132	=132	=132	=132	=132	=132	=132	=132
2r	8.F	8.F	2r	2r	8.F	2r	2r	16ff	16f	8.F
.	.	.	.	.	.	.	.	32r	32r	.
.	.	.	.	.	.	.	.	32gg	32g	.
.	.	.	.	.	.	.	.	16ff	16f	.
.	32G	32G	.	.	32G	.	.	32r	32r	32G
.	32A	32A	.	.	32A	.	.	32ee-	32e-	32A
.	8.B-	8.B-	.	.	8.B-	.	.	16dd	16d	8.B-
.	.	.	.	.	.	.	.	32r	32r	.
.	.	.	.	.	.	.	.	32cc	32c	.
.	.	.	.	.	.	.	.	16b-	16B-	.
.	32c	32c	.	.	32c	.	.	32r	32r	32c
.	32d	32d	.	.	32d	.	.	32a	32A	32d
=133	=133	=133	=133	=133	=133	=133	=133	=133	=133	=133
2r	8e-	8e-	2r	2r	8e-	2r	2r	16.g	16.G	8e-
.	.	.	.	.	.	.	.	32a	32A	.
.	8e	8e	.	.	8e	.	.	16.b-	16.B-	8e
.	.	.	.	.	.	.	.	32cc	32c	.
.	8f	8f	.	.	8f	.	.	8b-	8B-	8f
.	8F	8F	.	.	8F	.	.	8a	8A	8F
=134	=134	=134	=134	=134	=134	=134	=134	=134	=134	=134
4r	8BB-	8BB-	4r	4r	8BB-	4r	4r	4b-	4B-	4B-
.	8B-	8B-	.	.	8B-	.	.	.	.	.
8ff	4r	4r	8cc	8a	8F	8dd	8g	8ff	8f	4r
8ff	.	.	8cc	8a	8F	8dd	8g	8ff	8f	.
=135	=135	=135	=135	=135	=135	=135	=135	=135	=135	=135
8.ff	2r	2r	4dd	4b-	4B-	4ee	4cc	8.ff	8.f	2r
32ee	.	.	.	.	.	.	.	32ee	32e	.
32ff	.	.	.	.	.	.	.	32ff	32f	.
8.ff	.	.	8ee-	8cc	8c	4r	4r	8.ff	8.f	.
.	.	.	8ee-	8cc	8c	.	.	.	.	.
32ee	.	.	.	.	.	.	.	32ee	32e	.
32ff	.	.	.	.	.	.	.	32ff	32f	.
=136	=136	=136	=136	=136	=136	=136	=136	=136	=136	=136
8.ff	2r	2r	4cc	4a	4F	4r	4r	8.ff	8.f	2r
32ee	.	.	.	.	.	.	.	32ee	32e	.
32ff	.	.	.	.	.	.	.	32ff	32f	.
8.ff	.	.	8dd	8b-	8B-	8ee	8cc	8.ff	8.f	.
.	.	.	16dd	16b-	16B-	16ee	16cc	.	.	.
32ee	.	.	16ff	16dd	16d	16gg	16ee	32ee	32e	.
32ff	.	.	.	.	.	.	.	32ff	32f	.
=137	=137	=137	=137	=137	=137	=137	=137	=137	=137	=137
8.ff	2r	2r	8ee-	8cc	8c	8ff	8dd	8.ff	8.f	2r
.	.	.	8dd	8b-	8B-	8ee	8cc	.	.	.
32ee	.	.	.	.	.	.	.	32ee	32e	.
32ff	.	.	.	.	.	.	.	32ff	32f	.
8.ff	.	.	8cc	8a	8A	8dd	8g	8.ff	8.f	.
.	.	.	8dd	8b-	8B-	8ee	8cc	.	.	.
32ee	.	.	.	.	.	.	.	32ee	32e	.
32ff	.	.	.	.	.	.	.	32ff	32f	.
=138	=138	=138	=138	=138	=138	=138	=138	=138	=138	=138
8.ff	2r	2r	4cc	4a	4F	4dd	4g	8.ff	8.f	2r
32ee	.	.	.	.	.	.	.	32ee	32e	.
32ff	.	.	.	.	.	.	.	32ff	32f	.
8.ff	.	.	8cc	8a	8F	8dd	8g	8.ff	8.f	.
.	.	.	8cc	8a	8F	8dd	8g	.	.	.
32ee	.	.	.	.	.	.	.	32ee	32e	.
32ff	.	.	.	.	.	.	.	32ff	32f	.
=139	=139	=139	=139	=139	=139	=139	=139	=139	=139	=139
8.ff	2r	2r	4dd	4b-	4B-	4ee	4cc	8.ff	8.f	2r
32ee	.	.	.	.	.	.	.	32ee	32e	.
32ff	.	.	.	.	.	.	.	32ff	32f	.
8.ff	.	.	8ee-	8cc	8c	4r	4r	8.ff	8.f	.
.	.	.	8ee-	8cc	8c	.	.	.	.	.
32ee	.	.	.	.	.	.	.	32ee	32e	.
32ff	.	.	.	.	.	.	.	32ff	32f	.
=140	=140	=140	=140	=140	=140	=140	=140	=140	=140	=140
8.ff	4r	4r	4cc	4a	4F	2r	2r	8.ff	8.f	2r
32ee	.	.	.	.	.	.	.	32ee	32e	.
32ff	.	.	.	.	.	.	.	32ff	32f	.
8.ff	8D	8D	8.ff	4b-	4r	.	.	8.ff	8B-	.
.	8D	8D	.	.	.	.	.	.	8b-	.
32ee	.	.	32ee	.	.	.	.	32ee	.	.
32ff	.	.	32ff	.	.	.	.	32ff	.	.
=141	=141	=141	=141	=141	=141	=141	=141	=141	=141	=141
16.gg	4E-	4E-	16.gg	4b-	2r	2r	2r	16.gg	4b-	2r
32aa	.	.	32aa	.	.	.	.	32aa	.	.
16.bb-	.	.	16.bb-	.	.	.	.	16.bb-	.	.
32b-	.	.	32b-	.	.	.	.	32b-	.	.
8dd	8F	8F	8dd	8b-	.	.	.	8dd	8b-	.
8cc	8FF	8FF	8cc	8a	.	.	.	8cc	8a	.
=142	=142	=142	=142	=142	=142	=142	=142	=142	=142	=142
4b-	4BB-	4BB-	4b-	4b-	4r	4r	4r	4b-	4b-	4r
8ff	8f	8F	8ff	8ff	8F	8dd	8g	8f 8cc	8f 8cc	8f
8ff	8f	8F	8ff	8ff	8F	8dd	8g	8cc 8f	8cc 8f	8f
=143	=143	=143	=143	=143	=143	=143	=143	=143	=143	=143
8.ff	8.f	4B-	8.ff	8.ff	4B-	4ee	4cc	4dd 4f	4dd 4f	8.f
32ee	32e	.	32ee	32ee	.	.	.	.	.	32e
32ff	32f	.	32ff	32ff	.	.	.	.	.	32f
8.ff	8.f	8c	8.ff	8.ff	8c	8ff	8dd	8ee- 8f	8ee- 8f	8.f
.	.	8c	.	.	8c	8ff	8dd	8ee- 8f	8ee- 8f	.
32ee	32e	.	32ee	32ee	.	.	.	.	.	32e
32ff	32f	.	32ff	32ff	.	.	.	.	.	32f
=144	=144	=144	=144	=144	=144	=144	=144	=144	=144	=144
8.ff	8.f	4F	8.ff	8.ff	4F	4dd	4g	4cc 4f	4cc 4f	8.f
32ee	32e	.	32ee	32ee	.	.	.	.	.	32e
32ff	32f	.	32ff	32ff	.	.	.	.	.	32f
8.ff	8.f	8B-	8.ff	8.ff	8B-	8ee	8cc	8f 8dd	8f 8dd	8.f
.	.	16B-	.	.	16B-	16ee	16cc	16dd	16dd	.
32ee	32e	16d	32ee	32ee	16d	16gg	16ee	16ff	16ff	32e
32ff	32f	.	32ff	32ff	.	.	.	.	.	32f
=145	=145	=145	=145	=145	=145	=145	=145	=145	=145	=145
8.ff	8.f	8c	8.ff	8.ff	8c	8ff	8dd	8ee- 8f	8ee- 8f	8.f
.	.	8B-	.	.	8B-	8ee	8cc	8dd 8f	8dd 8f	.
32ee	32e	.	32ee	32ee	.	.	.	.	.	32e
32ff	32f	.	32ff	32ff	.	.	.	.	.	32f
8.ff	8.f	8F	8.ff	8.ff	8F	8dd	8g	8f 8cc	8cc 8f	8.f
.	.	8B-	.	.	8B-	8ee	8cc	8dd 8f	8dd 8f	.
32ee	32e	.	32ee	32ee	.	.	.	.	.	32e
32ff	32f	.	32ff	32ff	.	.	.	.	.	32f
=146	=146	=146	=146	=146	=146	=146	=146	=146	=146	=146
8.ff	8.f	4F	8.ff	8.ff	4F	4dd	4g	4cc 4f	4cc 4f	8.f
32ee	32e	.	32ee	32ee	.	.	.	.	.	32e
32ff	32f	.	32ff	32ff	.	.	.	.	.	32f
8.ff	8.f	8F	8.ff	8.ff	8F	8dd	8g	8cc 8f	8cc 8f	8.f
.	.	8F	.	.	8F	8dd	8g	8f 8cc	8cc 8f	.
32ee	32e	.	32ee	32ee	.	.	.	.	.	32e
32ff	32f	.	32ff	32ff	.	.	.	.	.	32f
=147	=147	=147	=147	=147	=147	=147	=147	=147	=147	=147
8.ff	8.f	4B-	8.ff	8.ff	4B-	4ee	4cc	4dd 4f	4dd 4f	8.f
32ee	32e	.	32ee	32ee	.	.	.	.	.	32e
32ff	32f	.	32ff	32ff	.	.	.	.	.	32f
8.ff	8.f	8c	8.ff	8.ff	8c	8ff	8dd	8ee- 8f	8ee- 8f	8.f
.	.	8c	.	.	8c	8ff	8dd	8ee- 8f	8f 8ee-	.
32ee	32e	.	32ee	32ee	.	.	.	.	.	32e
32ff	32f	.	32ff	32ff	.	.	.	.	.	32f
=148	=148	=148	=148	=148	=148	=148	=148	=148	=148	=148
8.ff	8.f	4F	8.ff	8.ff	4F	4dd	4g	4cc 4f	4cc 4f	8.f
32ee	32e	.	32ee	32ee	.	.	.	.	.	32e
32ff	32f	.	32ff	32ff	.	.	.	.	.	32f
8.ff	8D	8D	8.ff	8.ff	8D	8cc	8c	8.ff	8b-	8d
.	8D	8D	.	.	8D	8cc	8c	.	8b-	8d
32ee	.	.	32ee	32ee	.	.	.	32ee	.	.
32ff	.	.	32ff	32ff	.	.	.	32ff	.	.
=149	=149	=149	=149	=149	=149	=149	=149	=149	=149	=149
16.gg	4E-	4E-	16.gg	16.gg	4E-	4cc	4c	16.gg	4b-	4e-
32aa	.	.	32aa	32aa	.	.	.	32aa	.	.
16.bb-	.	.	16.bb-	16.bb-	.	.	.	16.bb-	.	.
32b-	.	.	32b-	32b-	.	.	.	32b-	.	.
8dd	8F	8F	8dd	8dd	8F	8ee	8cc	8dd	8B-	8f
8cc	8F	8F	8cc	8cc	8F	8dd	8g	8cc	8A	8f
=150	=150	=150	=150	=150	=150	=150	=150	=150	=150	=150
4b-	4BB-	4BB-	4b-	4b-	4D	8cc	4e	4b-	24A	4B-
.	.	.	.	.	.	.	.	.	24B-	.
.	.	.	.	.	.	.	.	.	24d	.
.	.	.	.	.	.	8r	.	.	24f	.
.	.	.	.	.	.	.	.	.	24d	.
.	.	.	.	.	.	.	.	.	24B-	.
4r	4r	4r	4r	4r	4r	8dd	8g	8ff	24A	8F
.	.	.	.	.	.	.	.	.	24c	.
.	.	.	.	.	.	.	.	.	24e-	.
.	.	.	.	.	.	8dd	8g	8ff	24f	8F
.	.	.	.	.	.	.	.	.	24e-	.
.	.	.	.	.	.	.	.	.	24c	.
=151	=151	=151	=151	=151	=151	=151	=151	=151	=151	=151
2r	4r	4r	2r	2r	2r	4ee	4cc	4bb-	24A	8D
.	.	.	.	.	.	.	.	.	24B-	.
.	.	.	.	.	.	.	.	.	24d	.
.	.	.	.	.	.	.	.	.	24f	8r
.	.	.	.	.	.	.	.	.	24d	.
.	.	.	.	.	.	.	.	.	24B-	.
.	8F	8F	.	.	.	8dd	8g	8ff	24A	8F
.	.	.	.	.	.	.	.	.	24c	.
.	.	.	.	.	.	.	.	.	24e-	.
.	8F	8F	.	.	.	8dd	8g	8ff	24f	8F
.	.	.	.	.	.	.	.	.	24e-	.
.	.	.	.	.	.	.	.	.	24c	.
=152	=152	=152	=152	=152	=152	=152	=152	=152	=152	=152
4r	8B-	8B-	4r	4r	2r	8cc	8e	4dd	24A	8B-
.	.	.	.	.	.	.	.	.	24B-	.
.	.	.	.	.	.	.	.	.	24d	.
.	4.r	4.r	.	.	.	8r	8r	.	24f	4.r
.	.	.	.	.	.	.	.	.	24d	.
.	.	.	.	.	.	.	.	.	24B-	.
8ff	.	.	8ff	8ff	.	8g	8g	8f	24A	.
.	.	.	.	.	.	.	.	.	24c	.
.	.	.	.	.	.	.	.	.	24e-	.
8ff	.	.	8ff	8ff	.	8g	8g	8f	24f	.
.	.	.	.	.	.	.	.	.	24e-	.
.	.	.	.	.	.	.	.	.	24c	.
=153	=153	=153	=153	=153	=153	=153	=153	=153	=153	=153
4bb-	4r	4r	4bb-	4bb-	4r	4cc	4cc	4b-	24A	4r
.	.	.	.	.	.	.	.	.	24B-	.
.	.	.	.	.	.	.	.	.	24d	.
.	.	.	.	.	.	.	.	.	24f	.
.	.	.	.	.	.	.	.	.	24d	.
.	.	.	.	.	.	.	.	.	24B-	.
8ff	8FF	8FF	8ff	8ff	8A	8g	8g	8f	24A	8F
.	.	.	.	.	.	.	.	.	24c	.
.	.	.	.	.	.	.	.	.	24e-	.
8ff	8FF	8FF	8ff	8ff	8A	8g	8g	8f	24f	8F
.	.	.	.	.	.	.	.	.	24e-	.
.	.	.	.	.	.	.	.	.	24c	.
=154	=154	=154	=154	=154	=154	=154	=154	=154	=154	=154
8dd	8BB-	8BB-	8dd	8dd	8B-	8e	8e	8d	8B-	8B-
4.r	4.r	4.r	4.r	4.r	4.r	4.r	4.r	4.r	4.r	4.r
==	==	==	==	==	==	==	==	==	==	==
*-	*-	*-	*-	*-	*-	*-	*-	*-	*-	*-
!!!RWG1: This file contains only pitch and duration data.
!!!RWG2: Transposing instruments are not transposed.
!!!RWG3: Spines may have incompatible meters.
!!!RWG4: Durations of rests and tied notes may be interpreted.
!!!RWG: Key is interpreted using the Humdrum key tool.
!!!AFT: stage1
!!!END: 1997/04/15
!!format changes:
!!content changes:
!!public access: complete
!!!KEY: 1808943354
!!!EMD: Converted from MuseData to Humdrum Dec 16, 2000, by Andreas Kornstaedt using muse2kern.
